src/48/apps/applications-multimedia.svg

<?xml version="1.0" encoding="UTF-8" standalone="no"?>
<svg
   xmlns:dc="http://purl.org/dc/elements/1.1/"
   xmlns:cc="http://creativecommons.org/ns#"
   xmlns:rdf="http://www.w3.org/1999/02/22-rdf-syntax-ns#"
   xmlns:svg="http://www.w3.org/2000/svg"
   xmlns="http://www.w3.org/2000/svg"
   xmlns:sodipodi="http://sodipodi.sourceforge.net/DTD/sodipodi-0.dtd"
   xmlns:inkscape="http://www.inkscape.org/namespaces/inkscape"
   id="svg4715"
   height="48"
   width="48"
   version="1.1"
   sodipodi:docname="applications-multimedia.svg"
   inkscape:version="0.92.4 (5da689c313, 2019-01-14)">
  <sodipodi:namedview
     pagecolor="#ffffff"
     bordercolor="#666666"
     borderopacity="1"
     objecttolerance="10"
     gridtolerance="10"
     guidetolerance="10"
     inkscape:pageopacity="0"
     inkscape:pageshadow="2"
     inkscape:window-width="1366"
     inkscape:window-height="697"
     id="namedview56"
     showgrid="false"
     inkscape:zoom="3.4766083"
     inkscape:cx="-34.564"
     inkscape:cy="40.791784"
     inkscape:window-x="0"
     inkscape:window-y="0"
     inkscape:window-maximized="1"
     inkscape:current-layer="svg4715" />
  <defs
     id="defs4717" />
  <metadata
     id="metadata4720">
    <rdf:RDF>
      <cc:Work
         rdf:about="">
        <dc:format>image/svg+xml</dc:format>
        <dc:type
           rdf:resource="http://purl.org/dc/dcmitype/StillImage" />
        <dc:title />
      </cc:Work>
    </rdf:RDF>
  </metadata>
  <rect
     style="display:inline;opacity:1;fill:#6ebbf6;fill-opacity:1;stroke:none;stroke-width:1;stroke-linecap:butt;stroke-linejoin:miter;stroke-miterlimit:4;stroke-dasharray:none;stroke-dashoffset:0;stroke-opacity:0.83137255"
     id="rect3457-8"
     y="15"
     x="11"
     ry="0"
     rx="0"
     height="27"
     width="18" />
  <path
     style="color:#000000;font-style:normal;font-variant:normal;font-weight:normal;font-stretch:normal;font-size:medium;line-height:normal;font-family:sans-serif;text-indent:0;text-align:start;text-decoration:none;text-decoration-line:none;text-decoration-style:solid;text-decoration-color:#000000;letter-spacing:normal;word-spacing:normal;text-transform:none;direction:ltr;block-progression:tb;writing-mode:lr-tb;baseline-shift:baseline;text-anchor:start;white-space:normal;clip-rule:nonzero;display:inline;overflow:visible;visibility:visible;opacity:0.7;isolation:auto;mix-blend-mode:normal;color-interpolation:sRGB;color-interpolation-filters:linearRGB;solid-color:#000000;solid-opacity:1;fill:#000000;fill-opacity:1;fill-rule:nonzero;stroke:none;stroke-width:0.99999994;stroke-linecap:round;stroke-linejoin:round;stroke-miterlimit:4;stroke-dasharray:none;stroke-dashoffset:0;stroke-opacity:1;marker:none;color-rendering:auto;image-rendering:auto;shape-rendering:auto;text-rendering:auto;enable-background:accumulate"
     d="M 7.6503906 15 C 7.2914203 15.000036 7.0000359 15.287553 7 15.642578 L 7 41.357422 C 7.0000359 41.712447 7.2914203 41.999964 7.6503906 42 L 10.900391 42 L 29.099609 42 L 32.349609 42 C 32.708579 41.999964 32.999963 41.712447 33 41.357422 L 33 15.642578 C 32.999963 15.287553 32.708579 15.000036 32.349609 15 L 29.099609 15 L 10.900391 15 L 7.6503906 15 z M 12 16 L 27.800781 16 L 27.800781 41 L 12 41 L 12 16 z M 8.5 18 L 10.5 18 L 10.5 19 L 8.5 19 L 8.5 18 z M 29.5 18 L 31.5 18 L 31.5 19 L 29.5 19 L 29.5 18 z M 8.5 21 L 10.5 21 L 10.5 22 L 8.5 22 L 8.5 21 z M 29.5 21 L 31.5 21 L 31.5 22 L 29.5 22 L 29.5 21 z M 8.5 24 L 10.5 24 L 10.5 25 L 8.5 25 L 8.5 24 z M 29.5 24 L 31.5 24 L 31.5 25 L 29.5 25 L 29.5 24 z M 8.5 27 L 10.5 27 L 10.5 28 L 8.5 28 L 8.5 27 z M 29.5 27 L 31.5 27 L 31.5 28 L 29.5 28 L 29.5 27 z M 8.5 30 L 10.5 30 L 10.5 31 L 8.5 31 L 8.5 30 z M 29.5 30 L 31.5 30 L 31.5 31 L 29.5 31 L 29.5 30 z M 8.5 33 L 10.5 33 L 10.5 34 L 8.5 34 L 8.5 33 z M 29.5 33 L 31.5 33 L 31.5 34 L 29.5 34 L 29.5 33 z M 8.5 36 L 10.5 36 L 10.5 37 L 8.5 37 L 8.5 36 z M 29.5 36 L 31.5 36 L 31.5 37 L 29.5 37 L 29.5 36 z M 8.5 39 L 10.5 39 L 10.5 40 L 8.5 40 L 8.5 39 z M 29.5 39 L 31.5 39 L 31.5 40 L 29.5 40 L 29.5 39 z "
     id="rect5505-21-2-1" />
  <path
     d="m 12.5,28.5 c 4.979239,0 9.958503,0 14.93774,0"
     id="path4320-2-8"
     style="display:block;overflow:visible;visibility:visible;opacity:0.7;fill:none;stroke:#000000;stroke-width:0.99999994;stroke-linecap:square;stroke-linejoin:round;stroke-miterlimit:4;stroke-dasharray:none;stroke-dashoffset:0;stroke-opacity:1;marker:none" />
  <path
     style="color:#000000;display:inline;overflow:visible;visibility:visible;opacity:0.3;fill:#e6e6e6;fill-opacity:1;fill-rule:nonzero;stroke:none;stroke-width:1;marker:none;enable-background:accumulate"
     d="m 8.5,18 v 1 h 2 v -1 z m 0,3 v 1 h 2 v -1 z m 0,3 v 1 h 2 v -1 z m 0,3 v 1 h 2 v -1 z m 0,3 v 1 h 2 v -1 z m 21,0 v 1 h 2 v -1 z m -21,3 v 1 h 2 v -1 z m 21,0 v 1 h 2 v -1 z m -21,3 v 1 h 2 v -1 z m 21,0 v 1 h 2 v -1 z m -21,3 v 1 h 2 v -1 z m 21,0 v 1 h 2 v -1 z"
     id="path3397" />
  <rect
     style="color:#000000;display:inline;overflow:visible;visibility:visible;opacity:1;fill:#fb9347;fill-opacity:1;fill-rule:nonzero;stroke:none;stroke-width:0.99999994;marker:none;enable-background:accumulate"
     id="rect5505"
     y="5.4999986"
     x="17.500002"
     ry="2"
     rx="2"
     height="25"
     width="25" />
  <rect
     style="color:#000000;display:inline;overflow:visible;visibility:visible;opacity:0.35;fill:none;stroke:#a62100;stroke-width:1;stroke-linecap:round;stroke-linejoin:round;stroke-miterlimit:4;stroke-dasharray:none;stroke-dashoffset:0;stroke-opacity:1;marker:none;enable-background:accumulate"
     id="rect5505-6"
     y="5.4999986"
     x="17.500002"
     ry="2"
     rx="2"
     height="25"
     width="25" />
  <path
     style="color:#000000;display:inline;overflow:visible;visibility:visible;opacity:1;fill:#fff6ec;fill-opacity:1;fill-rule:nonzero;stroke:none;marker:none;enable-background:accumulate"
     id="path7249-8-0-4-0"
     d="m 30.467122,8.0005689 c -0.53931,-0.0776 -0.45336,0.42193 -0.44483,0.7731 -0.006,4.1691901 0.0117,8.3406701 -0.009,12.5084401 -0.145,0.32452 -0.55212,0.01 -0.80112,0.0722 -1.73418,-0.0541 -3.601661,1.19458 -3.847001,3.03023 -0.25326,1.37886 1.032041,2.59317 2.321571,2.61489 1.91783,0.0526 3.57786,-1.87874 3.33426,-3.81462 0.007,-3.3283 -0.013,-6.65927 0.01,-9.9859 0.13139,-0.31618 0.48559,-0.0185 0.65097,0.0946 1.52116,0.9203 2.85047,2.44629 2.94468,4.32794 0.0815,1.08847 -0.14664,2.17303 -0.46032,3.2072 1.39838,-2.3007 1.32266,-5.50375 -0.40514,-7.60535 -1.33049,-1.38838 -2.57965,-3.04512 -2.83353,-5.0310801 -0.049,-0.18667 -0.30655,-0.18423 -0.46044,-0.19158 z" />
</svg>

<svg xmlns="http://www.w3.org/2000/svg" height="48" width="48"><rect y="15" x="11" ry="0" rx="0" height="27" width="18" fill="#6ebbf6"/><path style="line-height:normal;text-indent:0;text-align:start;text-decoration-line:none;text-decoration-style:solid;text-decoration-color:#000;text-transform:none;block-progression:tb;white-space:normal;isolation:auto;mix-blend-mode:normal;solid-color:#000;solid-opacity:1;marker:none" d="M7.65 15a.647.647 0 0 0-.65.643v25.714c0 .355.291.643.65.643h24.7c.359 0 .65-.288.65-.643V15.643a.647.647 0 0 0-.65-.643H7.65zM12 16h15.8v25H12V16zm-3.5 2h2v1h-2v-1zm21 0h2v1h-2v-1zm-21 3h2v1h-2v-1zm21 0h2v1h-2v-1zm-21 3h2v1h-2v-1zm21 0h2v1h-2v-1zm-21 3h2v1h-2v-1zm21 0h2v1h-2v-1zm-21 3h2v1h-2v-1zm21 0h2v1h-2v-1zm-21 3h2v1h-2v-1zm21 0h2v1h-2v-1zm-21 3h2v1h-2v-1zm21 0h2v1h-2v-1zm-21 3h2v1h-2v-1zm21 0h2v1h-2v-1z" color="#000" font-weight="400" font-family="sans-serif" overflow="visible" opacity=".7"/><path d="M12.5 28.5h14.938" style="marker:none" display="block" overflow="visible" opacity=".7" fill="none" stroke="#000" stroke-linecap="square" stroke-linejoin="round"/><path style="marker:none" d="M8.5 18v1h2v-1zm0 3v1h2v-1zm0 3v1h2v-1zm0 3v1h2v-1zm0 3v1h2v-1zm21 0v1h2v-1zm-21 3v1h2v-1zm21 0v1h2v-1zm-21 3v1h2v-1zm21 0v1h2v-1zm-21 3v1h2v-1zm21 0v1h2v-1z" color="#000" overflow="visible" opacity=".3" fill="#e6e6e6"/><rect style="marker:none" y="5.5" x="17.5" ry="2" rx="2" height="25" width="25" color="#000" overflow="visible" fill="#fb9347"/><rect style="marker:none" y="5.5" x="17.5" ry="2" rx="2" height="25" width="25" color="#000" overflow="visible" opacity=".35" fill="none" stroke="#a62100" stroke-linecap="round" stroke-linejoin="round"/><path style="marker:none" d="M30.467 8c-.54-.077-.453.422-.445.774-.006 4.169.012 8.34-.009 12.508-.145.325-.552.01-.8.072-1.735-.054-3.602 1.195-3.848 3.03-.253 1.38 1.032 2.594 2.322 2.615 1.918.053 3.578-1.878 3.334-3.814.007-3.328-.013-6.66.01-9.986.131-.316.486-.019.651.095 1.521.92 2.85 2.446 2.945 4.327.081 1.089-.147 2.173-.46 3.208 1.398-2.301 1.322-5.504-.406-7.606-1.33-1.388-2.58-3.045-2.833-5.03-.05-.187-.307-.185-.46-.192z" color="#000" overflow="visible" fill="#fff6ec"/></svg>
